X:1
T:"Dillon Brown"       (reel)     1257
T:"Dillon Brown"       (reel)     1257
T:after Miss Kennedy
C:after Miss Kennedy
L:1/8
M:4/4
K:C
V:1 treble 
V:1
 BEA |SOSOOO .!fermata!PMTuC(MBG)(A G) EGDG | (BG)(AB) cedc | (BG)(AG) EGDE | GBAG (EG) G2 :| %5
 (Bd)d^f egdc | Bdd^f ef g2 | Bdd^f egdc | BGAG EG G2 | Bdd^f egdc | Bdd^f ef g2 |{a} g^fge dcBd | %12
 cABG EG G2 |] %13

